packages/icons/src/SVG/import.svg

<!-- Generated by IcoMoon.io -->
<svg version="1.1" xmlns="http://www.w3.org/2000/svg" width="12" height="12" viewBox="0 0 12 12">
<title>import</title>
<path d="M11 1h-4v1h3v8h-3v1h4v-10z"></path>
<path d="M0 5h5v-2l4 3-4 3v-2h-5v-2z"></path>
</svg>

<svg width="12" height="12" viewBox="0 0 12 12" fill="none" xmlns="http://www.w3.org/2000/svg">
<path d="M11 1H7V2H10V10H7V11H11V1Z" fill="#4C505B"/>
<path d="M0 5H5L5 3L9 6L5 9V7H0V5Z" fill="#4C505B"/>
</svg>
